src/assets/icons/svg/person.svg

<?xml version="1.0" encoding="UTF-8"?>
<svg width="24px" height="24px" viewBox="0 0 24 24" version="1.1" xmlns="http://www.w3.org/2000/svg" xmlns:xlink="http://www.w3.org/1999/xlink">
    <!-- Generator: Sketch 59.1 (86144) - https://sketch.com -->
    <title>Icons/Person/24</title>
    <desc>Created with Sketch.</desc>
    <g id="Icons/Person/24" stroke="none" stroke-width="1" fill="none" fill-rule="evenodd">
        <rect id="Bounding-box" x="0" y="0" width="24" height="24"></rect>
        <path d="M16.7490333,12.5490233 C19.4818667,12.5490233 21.6979,14.7650567 21.6979,17.49789 L21.6979,17.49789 L21.6979,22.44739 L3,22.44739 L3,17.4985233 C3,14.7650567 5.21603333,12.5490233 7.9495,12.5490233 L7.9495,12.5490233 Z M16.7490333,14.1982233 L7.9495,14.1982233 C6.12993333,14.1982233 4.64983333,15.6783233 4.64983333,17.4985233 L4.64983333,17.4985233 L4.64983333,20.7975567 L20.0487,20.7975567 L20.0487,17.49789 C20.0487,15.6783233 18.5686,14.1982233 16.7490333,14.1982233 L16.7490333,14.1982233 Z M12.3490767,1 C15.1591767,1 17.43601,3.27683333 17.43601,6.0863 C17.43601,8.89576667 15.1591767,11.1738667 12.3490767,11.1738667 C9.53961,11.1738667 7.26214333,8.89576667 7.26214333,6.0863 C7.26214333,3.27683333 9.53961,1 12.3490767,1 Z M12.3490767,2.6492 C10.45351,2.6492 8.91197667,4.192 8.91197667,6.0863 C8.91197667,7.98186667 10.45351,9.5234 12.3490767,9.5234 C14.2446433,9.5234 15.7861767,7.98186667 15.7861767,6.0863 C15.7861767,4.192 14.2446433,2.6492 12.3490767,2.6492 Z" id="Color" fill="#000000"></path>
    </g>
</svg>

<?xml version="1.0" encoding="UTF-8"?>
<svg version="1.1" viewBox="0 0 24 24" xmlns="http://www.w3.org/2000/svg"><g fill="none" fill-rule="evenodd"><rect width="24" height="24"/><path d="m16.749 12.549c2.7328 0 4.9489 2.216 4.9489 4.9489v4.9495h-18.698v-4.9489c0-2.7335 2.216-4.9495 4.9495-4.9495zm0 1.6492h-8.7995c-1.8196 0-3.2997 1.4801-3.2997 3.3003v3.299h15.399v-3.2997c0-1.8196-1.4801-3.2997-3.2997-3.2997zm-4.4-13.198c2.8101 0 5.0869 2.2768 5.0869 5.0863s-2.2768 5.0876-5.0869 5.0876c-2.8095 0-5.0869-2.2781-5.0869-5.0876s2.2775-5.0863 5.0869-5.0863zm0 1.6492c-1.8956 0-3.4371 1.5428-3.4371 3.4371 0 1.8956 1.5415 3.4371 3.4371 3.4371 1.8956 0 3.4371-1.5415 3.4371-3.4371 0-1.8943-1.5415-3.4371-3.4371-3.4371z" fill="#000"/></g></svg>
